svgs/light/road-circle-check.svg

<svg xmlns="http://www.w3.org/2000/svg" viewBox="0 0 640 512"><!--! Font Awesome Pro 6.4.0 by @fontawesome - https://fontawesome.com License - https://fontawesome.com/license (Commercial License) Copyright 2023 Fonticons, Inc. --><path d="M157.5 74c9.2-25.2 33.2-42 60.1-42H422.4c26.9 0 50.9 16.8 60.1 42l44.1 120.6c-9.9-1.7-20.2-2.7-30.6-2.7c-1.5 0-2.9 0-4.4 .1L452.5 85c-4.6-12.6-16.6-21-30.1-21H336v48c0 8.8-7.2 16-16 16s-16-7.2-16-16V64H217.6c-13.4 0-25.4 8.4-30.1 21L70.6 405c-7.6 20.9 7.8 43 30.1 43H339.2c5.9 11.4 12.9 22.2 21 32H100.6c-44.5 0-75.4-44.2-60.1-86L157.5 74zM336 208v86.6c-3.5 7.6-6.5 15.6-8.9 23.8c-2.1 1.1-4.6 1.7-7.1 1.7c-8.8 0-16-7.2-16-16V208c0-8.8 7.2-16 16-16s16 7.2 16 16zM496 480a112 112 0 1 0 0-224 112 112 0 1 0 0 224zm0-256a144 144 0 1 1 0 288 144 144 0 1 1 0-288zm67.3 100.7c6.2 6.2 6.2 16.4 0 22.6l-72 72c-6.2 6.2-16.4 6.2-22.6 0l-40-40c-6.2-6.2-6.2-16.4 0-22.6s16.4-6.2 22.6 0L480 385.4l60.7-60.7c6.2-6.2 16.4-6.2 22.6 0z"/></svg>

<svg xmlns="http://www.w3.org/2000/svg" viewBox="0 0 640 512"><!--! Font Awesome Pro 6.3.0 by @fontawesome - https://fontawesome.com License - https://fontawesome.com/license (Commercial License) Copyright 2023 Fonticons, Inc. --><path d="M157.5 74.04C166.7 48.79 190.7 32 217.6 32H422.4C449.3 32 473.3 48.79 482.5 74.04L526.6 194.7C516.7 192.9 506.4 192 496 192C494.5 192 493.1 192 491.6 192.1L452.5 85.02C447.9 72.4 435.9 64 422.4 64H336V112C336 120.8 328.8 128 320 128C311.2 128 304 120.8 304 112V64H217.6C204.1 64 192.1 72.4 187.5 85.02L70.59 405C62.96 425.9 78.41 448 100.6 448H339.2C345 459.4 352.1 470.2 360.2 480H100.6C56.19 480 25.27 435.8 40.53 394L157.5 74.04zM336 208V294.6C332.5 302.2 329.5 310.2 327.1 318.3C324.1 319.4 322.6 319.1 320 319.1C311.2 319.1 304 312.8 304 303.1V207.1C304 199.2 311.2 191.1 320 191.1C328.8 191.1 336 199.2 336 207.1V208zM563.3 324.7C569.6 330.9 569.6 341.1 563.3 347.3L491.3 419.3C485.1 425.6 474.9 425.6 468.7 419.3L428.7 379.3C422.4 373.1 422.4 362.9 428.7 356.7C434.9 350.4 445.1 350.4 451.3 356.7L480 385.4L540.7 324.7C546.9 318.4 557.1 318.4 563.3 324.7H563.3zM352 368C352 288.5 416.5 224 496 224C575.5 224 640 288.5 640 368C640 447.5 575.5 512 496 512C416.5 512 352 447.5 352 368zM496 480C557.9 480 608 429.9 608 368C608 306.1 557.9 256 496 256C434.1 256 384 306.1 384 368C384 429.9 434.1 480 496 480z"/></svg>
